vim.svg

<?xml version="1.0" encoding="UTF-8" standalone="no"?>
<svg
  xmlns="http://www.w3.org/2000/svg"
  version="1.1"
  width="512"
  height="512"
  viewBox="0 0 512 512">
  <g
    style="fill:#ffffff">
    <path
      d="m 70.812215,81.1529 135.109085,0 8.23143,8.23143 0,25.262 -6.52837,7.94758 -14.75982,0 0,125.45844 127.1615,-125.45844 -21.00435,0 -7.37992,-7.94758 0,-26.68121 6.81223,-6.24454 136.81214,0 6.81223,6.81223 0,24.97814 -309.38845,317.33605 -35.196494,0 -10.18777,-5.88191 0,-303.50654 -17.061121,0 L 64,115.21401 64,88.53281 70.812215,81.1529 z"/>
    <path
      d="m 272.03163,280.60014 a 1.3858554,1.3858541 0 0 0 -0.63223,0.31612 l -5.97105,5.12807 a 1.3858554,1.3858541 0 0 0 -0.38636,0.5971 l -5.97104,16.7189 a 1.3858554,1.3858541 0 0 0 0.31611,1.44008 l 4.5661,4.56608 a 1.3858554,1.3858541 0 0 0 0.98346,0.38636 l 18.43999,0 a 1.3858554,1.3858541 0 0 0 0.98346,-0.38636 l 4.81196,-4.84707 a 1.3858554,1.3858541 0 0 0 0.35124,-0.59711 l 5.12807,-17.59699 a 1.3858554,1.3858541 0 0 0 -0.35124,-1.36983 l -3.96898,-3.96898 a 1.3858554,1.3858541 0 0 0 -0.98347,-0.38637 l -17.03503,0 a 1.3858554,1.3858541 0 0 0 -0.28099,0 z m -33.78908,47.13607 a 1.3858554,1.3858541 0 0 0 -1.05372,1.01859 l -2.28304,9.06193 a 1.3858554,1.3858541 0 0 0 1.3347,1.72106 l 10.85325,0 -26.90482,76.81564 a 1.3858554,1.3858541 0 0 0 1.29958,1.82643 l 39.16302,0 a 1.3858554,1.3858541 0 0 0 1.3347,-0.94834 l 2.56404,-8.25408 a 1.3858554,1.3858541 0 0 0 -1.3347,-1.79131 l -8.8512,0 26.62383,-77.62348 a 1.3858554,1.3858541 0 0 0 -1.29958,-1.82644 l -41.16507,0 a 1.3858554,1.3858541 0 0 0 -0.28099,0 z m 124.61918,0.28099 a 1.3858554,1.3858541 0 0 0 -0.77272,0.45661 l -8.14872,9.20242 -12.96068,0 -8.64045,-8.95655 a 1.3858554,1.3858541 0 0 0 -0.98346,-0.42149 l -30.94406,0 a 1.3858554,1.3858541 0 0 0 -1.29958,0.91322 l -2.84502,8.49995 a 1.3858554,1.3858541 0 0 0 1.29958,1.82643 l 8.28921,0 -25.78086,75.97267 a 1.3858554,1.3858541 0 0 0 1.29958,1.82643 l 32.94611,0 a 1.3858554,1.3858541 0 0 0 1.29958,-0.91321 l 2.52891,-7.41111 a 1.3858554,1.3858541 0 0 0 -1.29958,-1.82644 l -5.7603,0 16.43793,-51.73728 29.74985,0 -18.7561,60.09673 a 1.3858554,1.3858541 0 0 0 1.3347,1.79131 l 31.78702,0 a 1.3858554,1.3858541 0 0 0 1.26446,-0.84297 l 2.84503,-6.814 a 1.3858554,1.3858541 0 0 0 -1.26446,-1.89668 l -5.7603,0 16.71892,-52.61538 28.30977,0 -19.03709,60.37772 a 1.3858554,1.3858541 0 0 0 1.3347,1.79131 l 34.91304,0 a 1.3858554,1.3858541 0 0 0 1.29958,-0.87809 l 2.84503,-7.41111 a 1.3858554,1.3858541 0 0 0 -1.29958,-1.86156 l -6.91939,0 21.03915,-68.31569 a 1.3858554,1.3858541 0 0 0 -0.21074,-1.26445 l -6.53303,-8.78094 a 1.3858554,1.3858541 0 0 0 -1.12396,-0.52686 l -24.97301,0 a 1.3858554,1.3858541 0 0 0 -1.01859,0.42149 l -7.86772,8.64044 -13.76853,0 -8.14871,-8.92143 a 1.3858554,1.3858541 0 0 0 -1.01859,-0.42149 l -20.12593,0 a 1.3858554,1.3858541 0 0 0 -0.28099,0 z"/>
  </g>
</svg>

<?xml version="1.0" encoding="UTF-8" standalone="no"?>
<svg
  xmlns="http://www.w3.org/2000/svg"
  version="1.1"
  width="512"
  height="512"
  viewBox="0 0 512 512">
  <path
    d="M 70.8125 81.15625 L 64 88.53125 L 64 115.21875 L 70.25 121.46875 L 87.3125 121.46875 L 87.3125 424.96875 L 97.5 430.84375 L 132.6875 430.84375 L 260.28125 300 L 259.0625 303.375 A 1.3858554 1.3858541 0 0 0 259.375 304.8125 L 263.96875 309.375 A 1.3858554 1.3858541 0 0 0 264.9375 309.75 L 283.375 309.75 A 1.3858554 1.3858541 0 0 0 284.375 309.375 L 289.1875 304.53125 A 1.3858554 1.3858541 0 0 0 289.53125 303.9375 L 294.65625 286.3125 A 1.3858554 1.3858541 0 0 0 294.3125 284.96875 L 290.34375 281 A 1.3858554 1.3858541 0 0 0 289.34375 280.59375 L 279.1875 280.59375 L 442.09375 113.5 L 442.09375 88.53125 L 435.28125 81.71875 L 298.46875 81.71875 L 291.65625 87.96875 L 291.65625 114.65625 L 299.03125 122.59375 L 320.03125 122.59375 L 192.875 248.0625 L 192.875 122.59375 L 207.625 122.59375 L 214.15625 114.65625 L 214.15625 89.375 L 205.90625 81.15625 L 70.8125 81.15625 z M 238.375 327.71875 A 1.3858554 1.3858541 0 0 0 238.25 327.75 A 1.3858554 1.3858541 0 0 0 237.1875 328.75 L 234.90625 337.8125 A 1.3858554 1.3858541 0 0 0 236.25 339.53125 L 247.09375 339.53125 L 220.1875 416.34375 A 1.3858554 1.3858541 0 0 0 221.5 418.1875 L 260.65625 418.1875 A 1.3858554 1.3858541 0 0 0 262 417.21875 L 264.5625 408.96875 A 1.3858554 1.3858541 0 0 0 263.21875 407.1875 L 254.375 407.1875 L 281 329.5625 A 1.3858554 1.3858541 0 0 0 279.6875 327.75 L 238.53125 327.75 A 1.3858554 1.3858541 0 0 0 238.375 327.71875 z M 363 328 A 1.3858554 1.3858541 0 0 0 362.875 328.03125 A 1.3858554 1.3858541 0 0 0 362.09375 328.46875 L 353.9375 337.6875 L 340.96875 337.6875 L 332.34375 328.71875 A 1.3858554 1.3858541 0 0 0 331.34375 328.3125 L 300.40625 328.3125 A 1.3858554 1.3858541 0 0 0 299.125 329.21875 L 296.28125 337.71875 A 1.3858554 1.3858541 0 0 0 297.5625 339.53125 L 305.84375 339.53125 L 280.0625 415.5 A 1.3858554 1.3858541 0 0 0 281.375 417.34375 L 314.3125 417.34375 A 1.3858554 1.3858541 0 0 0 315.625 416.4375 L 318.15625 409 A 1.3858554 1.3858541 0 0 0 316.84375 407.1875 L 311.09375 407.1875 L 327.53125 355.4375 L 357.28125 355.4375 L 338.53125 415.53125 A 1.3858554 1.3858541 0 0 0 339.84375 417.34375 L 371.65625 417.34375 A 1.3858554 1.3858541 0 0 0 372.90625 416.5 L 375.75 409.6875 A 1.3858554 1.3858541 0 0 0 374.5 407.78125 L 368.71875 407.78125 L 385.4375 355.15625 L 413.75 355.15625 L 394.71875 415.53125 A 1.3858554 1.3858541 0 0 0 396.0625 417.34375 L 430.96875 417.34375 A 1.3858554 1.3858541 0 0 0 432.28125 416.46875 L 435.125 409.0625 A 1.3858554 1.3858541 0 0 0 433.8125 407.1875 L 426.90625 407.1875 L 447.9375 338.875 A 1.3858554 1.3858541 0 0 0 447.71875 337.59375 L 441.1875 328.8125 A 1.3858554 1.3858541 0 0 0 440.0625 328.3125 L 415.09375 328.3125 A 1.3858554 1.3858541 0 0 0 414.0625 328.71875 L 406.21875 337.375 L 392.4375 337.375 L 384.28125 328.4375 A 1.3858554 1.3858541 0 0 0 383.28125 328.03125 L 363.15625 328.03125 A 1.3858554 1.3858541 0 0 0 363 328 z"
    style="fill:#ffffff"/>
</svg>
